X:870
T:Xiraldilla (CT 365)
R:Xiraldilla
C:Tradicional
S:Msica Tradicional Asturiana, (C) Tello & Tito. Asturies, 2001.
S:http://pagina.de/MusTradAst <telloytito@asturies.org>
N:Xiraldilla, dictada por Severino Martnez Iglesias, de cuarenta y un aos, de Llanuces, ayuntamiento de Quirs, quien dice la aprendi en Turn.
A:Asturies
O:Turn
Z:Cancioneru de Torner 365
M:3/8
L:1/8
Q:3/8=88
K:Gm
|: G2 B|AGA|^F2 D|G2 B|AAG|A2 z|
G2 B|AGA|^F2 D|G2 B|AG^F|G2 z :|
G2 B|AGA|^F2 D|G2 B|AG^F|G2 z||
W:El rel da las doce,
W:da las once y las diez,
W:da las nueve y las ocho,
W:da las siete y las seis.
W:
W:Da las cinco y las cuatro,
W:da las tres y las dos,
W:da la una y la media
W:y da el cuarto y adios.
W:
W:Dame la mano, nia,
W:que te la dar yo.
W:
